www/assets/icons/directions_railway_filled.svg

<svg xmlns="http://www.w3.org/2000/svg" width="24" height="24" viewBox="0 0 24 24" fill='currentColor'><path d="M12 2.5c-4 0-8 .5-8 4V16c0 1.93 1.57 3.5 3.5 3.5l-1.5 1v1h12v-1l-1.5-1c1.93 0 3.5-1.57 3.5-3.5V6.5c0-3.5-3.58-4-8-4m0 14c-.83 0-1.5-.67-1.5-1.5s.67-1.5 1.5-1.5 1.5.67 1.5 1.5-.67 1.5-1.5 1.5m6-6H6v-3h12z"/></svg>

<svg width="24" height="24" viewBox="0 0 24 24" xmlns="http://www.w3.org/2000/svg" fill='currentColor'><path d="M12 2.5C8 2.5 4 3 4 6.5V16C4 17.93 5.57 19.5 7.5 19.5L6 20.5V21.5H18V20.5L16.5 19.5C18.43 19.5 20 17.93 20 16V6.5C20 3 16.42 2.5 12 2.5ZM12 16.5C11.17 16.5 10.5 15.83 10.5 15C10.5 14.17 11.17 13.5 12 13.5C12.83 13.5 13.5 14.17 13.5 15C13.5 15.83 12.83 16.5 12 16.5ZM18 10.5H6V7.5H18V10.5Z"/></svg>
